!!!OTL: Die Wachtel
!!!OTL-incipit:WENN DIE SONNE FRUEH AUFGEHT
!!!COM: C. Geissler
!!!ARE: Europa, Mitteleuropa, Deutschland
!!!SCT: F0338
!!!TXL: @@DE
!!!YEM: Copyright 1995, estate of Helmut Schaffrath.
**kern	**text
*ICvox	*
*M4/4	*
*met(c)	*
*k[f#c#g#d#]	*
*E:	*
{8g#	1._Wenn
8a	die
=1	=1
4b	Son-
4b	-ne
4cc#	früh
4a	auf-
=2	=2
[2f#	-geht,
4f#]}	.
{8g#	schon
8f#	in
=3	=3
4e	korn
4e	die
4e	Wach-
4f#	-tel
=4	=4
2g#	steht;
4r}	.
{(8g#	ruft
8a	den
=5	=5
4b	Bau-
4b	-er
4cc#	aus
4dd#	dem
=6	=6
2ee)	Bett':
4r}	.
{8b	"Auf-
8b	-ge-
=7	=7
4b	-macht,
8b	auf-
8b	-ge-
4b	-macht,
8b	auf-
8b	-ge-
=8	=8
4b;	-macht!"
4r	.
4r}	.
==	==
!!!AGN: Jugend - Lied, Tageslauf, Tier
!!!ONB: ESAC (Essen Associative Code) Database: FINK
!!!AMT: simple quadruple
!!!AIN: vox
!!!EED: Helmut Schaffrath
!!!EEV: 1.0
!!!GTL: Jugendlieder
!!!source: Musikalischer Hausschatz der Deutschen. Eine Sammlung von über 1000 Liedern und Gesängen mit Singstimmen und Klavierbegleitung. Leipzig, Litterarisches Verlags-Haus.
!!!page: 200
!!!ENC: Anna Maria Matuszewska
!!!EEV: 2025/03/13
*-	*-
